X:1
T:Title
%%score { ( 1 3 ) | ( 2 4 ) }
L:1/8
M:4/4
K:Db
V:1 treble nm="Grand Piano"
V:3 treble 
V:2 bass 
V:4 bass 
V:1
 z4 z2[Q:1/4=100] [Bd]2 |[M:3/4] [Bd]4 [Bd]2 | e4 z2 | [Bd]4 [Bd]2 | [Bd]4 [Bd]2 | [Af]4 [Ae]2 | %6
[M:2/4] [Bd]4 |[M:1/4] d2 |[M:3/4] d2 c2 e2 | e2 d2 g2 | f2 e2 c2 | B2 A2 [d_f]2 | %12
 [ce]2 [Bd]2 [Ac]2 | [Ad]4 [F_c]2 |[M:2/4] [GB]4 |] %15
V:2
 z4 z2 [G,,G,]2 |[M:3/4] [G,,G,]4 [G,,G,]2 | [C,G,]4 [D,F,]2 | [G,,G,]4 G,2 | [F,B,]4 F,2 | %5
 F,2 C,2 F,2 |[M:2/4] [B,,F,]4 |[M:1/4] [B,,B,]2 |[M:3/4] B,2 A,2 [F,C]2 | C2 B,2 [B,,D]2 | %10
 D2 C2 [C,A,]2 | G,2 F,2 [B,,G,]2 | G,2- [D,G,]2 [E,G,]2 | G,2 F,2 D,2 |[M:2/4] [G,,D,]4 |] %15
V:3
 x8 |[M:3/4] x6 | B2 A2 [cd]2 | x6 | x6 | x6 |[M:2/4] x4 |[M:1/4] x2 |[M:3/4] x6 | x6 | x6 | x6 | %12
 x6 | x6 |[M:2/4] x4 |] %15
V:4
 x8 |[M:3/4] x6 | x6 | x6 | x6 | F,,4 z2 |[M:2/4] x4 |[M:1/4] x2 |[M:3/4] D,4 z2 | G,4 z2 | %10
 C,4 z2 | D,4 z2 | C,2 z2 z2 | D,4 z2 |[M:2/4] x4 |] %15

